X: 1
T: Mazurka: Bec \`a Bec
O: From the playing of La Chavan\'ee
R: mazurka
S: Qu\'ebec City workshop, from Betsy Hooper
P: (With a mazurka lilt on the eighth-note pairs)
Q: 1/4=130
M: 3/4
L: 1/8
K: D
A BA |\
"D"f2 fg fe | "Bm"de B2 cd | "A7"e2 ef ge | "D"fe dc BA |\
"D"f2 fg fe | "Bm"de B2 cd | "A7"ef ge cA | "D"d3 :|
|: z fg |\
"D"fe d2 fg | "D"fe d2 a2 | "A7"g2 eg eg | "D"fe d2 fg |\
"D"fe d2 fg | "D"fe d2 a2 | "A7"g2 eg ec | "D"d3 :|
